X: 24231
T: Lord Moira's Welcome To Scotland
R: strathspey
M: 4/4
K: Gmajor
B>A|:G2 G>A B<dd>B|c>AB>G A>G (3FED|
G2 G>A B<d d2|1 (3efg f>a g>ed>B:|2 (3efg (3fga g2||
g>d|g>ab>g a>g d2|e>fg>d e>d B2|
g>ab>g a>gf>d|(3efg f>a g2 g>d|
g>ab>g a>gf>d|e>fg>e d>cB>A|
G2 G>A B<d d2|(3efg f>a g>ed>B||

